dist/img/ekoniva.svg

<svg width="154" height="50" viewBox="0 0 154 50" fill="none" xmlns="http://www.w3.org/2000/svg">
<path d="M5.34817 35.2571H13.861C13.3874 33.8697 12.5588 32.8131 11.3642 32.098C10.1803 31.3829 8.75975 31.02 7.10239 31.02C6.31675 31.02 5.52036 31.1588 4.70244 31.4256C3.88452 31.7031 3.12041 32.1193 2.39935 32.685L0.505223 28.7787C1.22628 28.1064 2.24868 27.498 3.55089 26.9537C4.85311 26.4094 6.4459 26.1426 8.30774 26.1426C9.87901 26.1426 11.3319 26.4201 12.6556 26.9857C13.9901 27.5514 15.1417 28.3518 16.121 29.3764C17.1004 30.4117 17.8645 31.6497 18.4133 33.0906C18.9622 34.5314 19.2313 36.143 19.2313 37.9253C19.2313 39.7504 18.9622 41.394 18.4241 42.8562C17.886 44.3183 17.1111 45.5564 16.0995 46.5703C15.0879 47.5842 13.8717 48.3526 12.4404 48.8969C11.0198 49.4413 9.41624 49.7081 7.64049 49.7081C6.85486 49.7081 6.10151 49.644 5.35893 49.516C4.6271 49.3879 3.93833 49.2065 3.30337 48.993C2.6684 48.7796 2.08725 48.5234 1.58143 48.2459C1.07561 47.9684 0.655891 47.6589 0.322266 47.3387L2.43164 42.9415C2.99127 43.4432 3.70157 43.8807 4.58406 44.265C5.46655 44.6492 6.4459 44.8306 7.54363 44.8306C8.26469 44.8306 8.96423 44.7452 9.653 44.5638C10.331 44.393 10.966 44.1155 11.5471 43.7313C12.1283 43.3471 12.6341 42.8668 13.0646 42.2798C13.4951 41.6928 13.8179 40.9777 14.0224 40.1346H5.31588V35.2465L5.34817 35.2571Z" fill="#27A536"/>
<path d="M21.3623 26.5293H26.3236V36.4657L33.4158 26.5293H39.3673L31.2204 37.0527L40.013 49.337H33.7279L26.3236 38.4828V49.337H21.3731V26.5293H21.3623Z" fill="#27A536"/>
<path d="M37.6455 37.9369C37.6455 36.2826 37.9253 34.7458 38.4849 33.3049C39.0446 31.8748 39.8195 30.6261 40.8203 29.5588C41.8212 28.4915 43.0266 27.659 44.4472 27.0507C45.857 26.4423 47.439 26.1328 49.1717 26.1328C50.8183 26.1328 52.3465 26.4103 53.7564 26.9439C55.1554 27.4883 56.3823 28.2674 57.4155 29.292C58.4486 30.3165 59.2558 31.5546 59.8369 33.0061C60.4181 34.4576 60.7087 36.1012 60.7087 37.9262C60.7087 39.6659 60.4181 41.2561 59.8369 42.697C59.2558 44.1378 58.4486 45.3865 57.4155 46.4324C56.3823 47.4784 55.1662 48.2788 53.7564 48.8552C52.3465 49.4315 50.8291 49.7197 49.1717 49.7197C47.5143 49.7197 45.9969 49.4529 44.5871 48.9085C43.1772 48.3642 41.9611 47.5851 40.9279 46.5605C39.8948 45.5359 39.0876 44.2979 38.5172 42.8464C37.9361 41.3949 37.6455 39.7513 37.6455 37.9262V37.9369ZM42.9082 37.9369C42.9082 38.9188 43.0696 39.826 43.4032 40.6691C43.7369 41.5123 44.1781 42.2487 44.7377 42.8677C45.2974 43.4868 45.9538 43.967 46.718 44.3192C47.4821 44.6714 48.3 44.8422 49.161 44.8422C50.1941 44.8422 51.0981 44.6608 51.873 44.3086C52.6479 43.9457 53.2936 43.4654 53.8209 42.8464C54.3483 42.2274 54.7465 41.4909 55.0155 40.6478C55.2846 39.8046 55.4137 38.8975 55.4137 37.9476C55.4137 36.9017 55.2523 35.9624 54.9294 35.1086C54.6066 34.2655 54.1653 33.5291 53.5949 32.9207C53.0245 32.3124 52.3573 31.8427 51.5932 31.5226C50.8291 31.1917 50.0112 31.0316 49.1502 31.0316C48.2462 31.0316 47.4067 31.1917 46.6426 31.5226C45.8785 31.8534 45.222 32.3124 44.6624 32.9207C44.1028 33.5291 43.6723 34.2548 43.3602 35.1086C43.0481 35.9624 42.8974 36.9017 42.8974 37.9476L42.9082 37.9369Z" fill="#27A536"/>
<path d="M75.6566 40.1478H67.7572V49.337H62.7959V26.5293H67.7572V35.2596H75.6566V26.5293H80.6072V49.337H75.6566V40.1478Z" fill="#27A536"/>
<path d="M83.084 49.337V26.5293H88.0346V40.7028L97.6344 26.5293H101.971V49.337H97.0101V35.1636L87.4104 49.337H83.0732H83.084Z" fill="#004C23"/>
<path d="M127.563 26.5293H131.987L140.984 49.337H135.721L133.924 44.5449H125.325L123.528 49.337H118.577L127.574 26.5293H127.563ZM127.187 39.6568H132.062L129.641 33.2105L127.187 39.6568Z" fill="#27A536"/>
<path d="M21.3623 1.11719H37.7853V6.00532H26.3236V10.0183H36.8597V14.9064H26.3236V19.0475H38.0974V23.9356H21.3623V1.12786V1.11719Z" fill="#27A536"/>
<path d="M40.6475 1.11719H45.6088V11.0536L52.701 1.11719H58.6524L50.5055 11.6406L59.2982 23.9249H53.0131L45.6088 13.0707V23.9249H40.6582V1.11719H40.6475Z" fill="#27A536"/>
<path d="M57.7168 12.515C57.7168 10.8608 57.9966 9.32388 58.5562 7.88305C59.1159 6.4529 59.8907 5.20418 60.8916 4.1369C61.8925 3.06962 63.0978 2.23715 64.5184 1.6288C65.9283 1.02045 67.5103 0.710938 69.243 0.710938C70.8896 0.710938 72.4178 0.988432 73.8277 1.52207C75.2267 2.06638 76.4536 2.84549 77.4868 3.87008C78.5199 4.89467 79.3271 6.13271 79.9082 7.58421C80.4894 9.03571 80.78 10.6793 80.78 12.5044C80.78 14.244 80.4894 15.8343 79.9082 17.2751C79.3271 18.7159 78.5199 19.9646 77.4975 21.0106C76.4644 22.0565 75.2482 22.857 73.8384 23.4333C72.4286 24.0096 70.9111 24.2978 69.2538 24.2978C67.5964 24.2978 66.0789 24.031 64.6691 23.4867C63.2593 22.9423 62.0432 22.1632 61.01 21.1386C59.9768 20.1141 59.1697 18.876 58.5993 17.4245C58.0181 15.973 57.7276 14.3294 57.7276 12.5044L57.7168 12.515ZM62.9795 12.515C62.9795 13.4969 63.1409 14.4041 63.4745 15.2473C63.8081 16.0904 64.2494 16.8268 64.809 17.4459C65.3686 18.0649 66.0251 18.5452 66.7892 18.8974C67.5534 19.2496 68.3713 19.4203 69.2322 19.4203C70.2654 19.4203 71.1694 19.2389 71.9443 18.8867C72.7192 18.5238 73.3649 18.0435 73.8922 17.4245C74.4196 16.8055 74.8178 16.0691 75.0868 15.2259C75.3559 14.3828 75.485 13.4756 75.485 12.5257C75.485 11.4798 75.3236 10.5406 75.0007 9.68674C74.6779 8.84359 74.2366 8.10718 73.6662 7.49883C73.0958 6.89048 72.4286 6.42087 71.6645 6.10069C70.9004 5.76983 70.0824 5.60974 69.2215 5.60974C68.3175 5.60974 67.478 5.76983 66.7139 6.10069C65.9498 6.43154 65.2933 6.89048 64.7337 7.49883C64.174 8.10718 63.7436 8.83292 63.4315 9.68674C63.1194 10.5299 62.9687 11.4798 62.9687 12.5257L62.9795 12.515Z" fill="#27A536"/>
<path d="M98.011 23.9249L87.7225 10.2424V23.9249H83.0732V1.11719H87.0337L97.3223 14.8637V1.11719H101.971V23.9249H98.011Z" fill="#004C23"/>
<path d="M104.456 1.10547H109.407V23.9132H104.456V1.10547Z" fill="#27A536"/>
<path d="M137.517 1.10547H141.94L150.937 23.9132H145.674L143.877 19.1211H135.278L133.481 23.9132H128.53L137.527 1.10547H137.517ZM137.14 14.233H142.015L139.594 7.78663L137.14 14.233Z" fill="#27A536"/>
<path d="M128.833 1.10547L122.483 17.2107L116.134 1.10547H110.828L119.836 23.9132H125.131L134.128 1.10547H128.833Z" fill="#27A536"/>
<path d="M104.456 26.5905C104.768 26.5692 105.166 26.5479 105.661 26.5265C106.156 26.5052 106.705 26.4838 107.308 26.4625C107.911 26.4411 108.524 26.4198 109.17 26.4091C109.805 26.4091 110.429 26.3984 111.032 26.3984C112.334 26.3984 113.442 26.5479 114.357 26.836C115.272 27.1242 116.025 27.5298 116.617 28.042C117.209 28.5543 117.64 29.152 117.898 29.8457C118.167 30.5395 118.296 31.2759 118.296 32.0657C118.296 33.261 118.081 34.2643 117.661 35.0754C117.241 35.8865 116.628 36.5803 115.821 37.1459V37.21C116.208 37.3594 116.596 37.5835 116.962 37.8824C117.338 38.1705 117.661 38.5334 117.952 38.9603C118.242 39.3872 118.468 39.8888 118.651 40.4545C118.823 41.0308 118.91 41.6925 118.91 42.429C118.91 43.6243 118.705 44.6596 118.285 45.5454C117.876 46.4206 117.295 47.157 116.553 47.744C115.81 48.331 114.938 48.7686 113.937 49.0461C112.937 49.3342 111.85 49.473 110.666 49.473C110.149 49.473 109.59 49.473 108.998 49.4516C108.395 49.4516 107.814 49.4303 107.243 49.4196C106.673 49.409 106.146 49.3876 105.651 49.3663C105.156 49.3449 104.757 49.3129 104.445 49.2702V26.5905H104.456ZM110.956 31.2866C110.644 31.2866 110.386 31.2972 110.171 31.3186C109.956 31.3399 109.697 31.372 109.417 31.4146V35.5557H111.064C111.699 35.5557 112.248 35.3956 112.689 35.0647C113.13 34.7339 113.356 34.1682 113.356 33.3357C113.356 32.642 113.109 32.1297 112.614 31.7882C112.119 31.4573 111.57 31.2866 110.967 31.2866H110.956ZM109.407 40.113V44.3821C109.568 44.4248 109.773 44.4675 110.009 44.5101C110.246 44.5528 110.601 44.5742 111.075 44.5742C112.043 44.5742 112.764 44.3607 113.238 43.9445C113.711 43.5176 113.948 42.9306 113.948 42.1728C113.948 41.4577 113.711 40.9348 113.238 40.6039C112.764 40.2731 112.119 40.113 111.322 40.113H109.407Z" fill="#27A536"/>
<path d="M148.774 3.49638C148.774 2.10892 149.754 0.988281 150.97 0.988281C152.186 0.988281 153.165 2.10892 153.165 3.49638C153.165 4.88385 152.186 6.00449 150.97 6.00449C149.754 6.00449 148.774 4.88385 148.774 3.49638ZM149.313 3.49638C149.313 4.55299 150.055 5.38546 150.97 5.38546C151.895 5.38546 152.627 4.55299 152.627 3.49638C152.627 2.43978 151.895 1.6073 150.97 1.6073C150.055 1.6073 149.313 2.43978 149.313 3.49638ZM151.906 2.96274C151.906 3.30427 151.745 3.59244 151.465 3.70984L152.046 4.67039C152.046 4.67039 151.895 4.76644 151.702 4.76644C151.53 4.76644 151.433 4.71308 151.433 4.71308L150.862 3.78455H150.701V4.71308C150.701 4.71308 150.572 4.76644 150.443 4.76644C150.281 4.76644 150.173 4.71308 150.173 4.71308V2.16229H151.11C151.594 2.16229 151.917 2.49314 151.917 2.97341L151.906 2.96274ZM151.056 3.27226C151.25 3.27226 151.357 3.15485 151.357 2.96274C151.357 2.75996 151.25 2.65323 151.056 2.65323H150.701V3.27226H151.056Z" fill="#27A536"/>
</svg>

<svg width="154" height="50" viewBox="0 0 154 50" fill="none" xmlns="http://www.w3.org/2000/svg"><path d="M5.348 35.257h8.513c-.474-1.387-1.302-2.444-2.497-3.159-1.184-.715-2.604-1.078-4.262-1.078-.785 0-1.582.139-2.4.406A7.727 7.727 0 002.4 32.685L.505 28.779c.721-.673 1.744-1.281 3.046-1.825 1.302-.545 2.895-.811 4.757-.811 1.571 0 3.024.277 4.348.843a10.305 10.305 0 013.465 2.39c.98 1.036 1.744 2.274 2.292 3.715.55 1.44.818 3.052.818 4.834 0 1.825-.269 3.469-.807 4.931-.538 1.462-1.313 2.7-2.325 3.714-1.011 1.014-2.227 1.783-3.659 2.327-1.42.544-3.024.811-4.8.811a13.346 13.346 0 01-4.337-.715 10.662 10.662 0 01-1.722-.747 5.94 5.94 0 01-1.259-.907l2.11-4.398c.56.502 1.27.94 2.152 1.324.883.384 1.862.566 2.96.566.72 0 1.42-.086 2.109-.267a6.133 6.133 0 001.894-.833 5.909 5.909 0 001.518-1.451c.43-.587.753-1.302.957-2.145H5.316v-4.889l.032.011zm16.014-8.727h4.962v9.936l7.092-9.937h5.951L31.22 37.053l8.793 12.284h-6.285l-7.404-10.854v10.854h-4.95V26.529h-.012z" fill="#27A536"/><path d="M37.645 37.937c0-1.654.28-3.191.84-4.632.56-1.43 1.334-2.679 2.335-3.746 1.001-1.068 2.207-1.9 3.627-2.508 1.41-.609 2.992-.918 4.725-.918 1.646 0 3.175.277 4.584.81 1.4.545 2.626 1.324 3.66 2.349 1.033 1.024 1.84 2.263 2.42 3.714.582 1.452.873 3.095.873 4.92 0 1.74-.29 3.33-.872 4.771-.581 1.44-1.388 2.69-2.422 3.735-1.033 1.046-2.249 1.847-3.659 2.423-1.41.577-2.927.865-4.584.865-1.658 0-3.175-.267-4.585-.812a10.482 10.482 0 01-3.66-2.348c-1.032-1.024-1.84-2.262-2.41-3.714-.58-1.451-.872-3.095-.872-4.92v.01zm5.263 0c0 .982.162 1.889.495 2.732.334.843.775 1.58 1.335 2.199a6.04 6.04 0 001.98 1.451 5.773 5.773 0 002.443.523c1.033 0 1.937-.181 2.712-.533a5.66 5.66 0 001.948-1.463 6.307 6.307 0 001.195-2.198c.269-.843.398-1.75.398-2.7 0-1.046-.162-1.986-.485-2.84-.322-.842-.764-1.579-1.334-2.187a5.789 5.789 0 00-2.002-1.398 6.09 6.09 0 00-2.443-.491c-.904 0-1.743.16-2.507.49a5.738 5.738 0 00-1.98 1.399c-.56.608-.99 1.334-1.303 2.188-.312.853-.463 1.793-.463 2.839l.011-.011zm32.749 2.211h-7.9v9.189h-4.961V26.529h4.961v8.73h7.9v-8.73h4.95v22.808h-4.95v-9.19z" fill="#27A536"/><path d="M83.084 49.337V26.529h4.95v14.174l9.6-14.174h4.337v22.808h-4.96V35.164l-9.6 14.173h-4.338.011z" fill="#004C23"/><path d="M127.563 26.53h4.424l8.997 22.807h-5.263l-1.797-4.792h-8.599l-1.797 4.792h-4.951l8.997-22.808h-.011zm-.376 13.127h4.875l-2.421-6.446-2.454 6.446zM21.362 1.117h16.423v4.888H26.324v4.013H36.86v4.888H26.324v4.141h11.773v4.889H21.362V1.118zm19.286 0h4.96v9.937l7.093-9.937h5.951l-8.147 10.524 8.793 12.284h-6.285L45.61 13.07v10.854h-4.95V1.117h-.011z" fill="#27A536"/><path d="M57.717 12.515c0-1.654.28-3.191.84-4.632.559-1.43 1.334-2.679 2.335-3.746 1-1.067 2.206-1.9 3.626-2.508C65.928 1.02 67.51.71 69.243.71c1.647 0 3.175.277 4.585.811 1.399.544 2.626 1.323 3.659 2.348s1.84 2.263 2.421 3.714c.581 1.452.872 3.095.872 4.92 0 1.74-.29 3.33-.872 4.771-.58 1.44-1.388 2.69-2.41 3.736-1.034 1.046-2.25 1.846-3.66 2.422-1.41.577-2.927.865-4.584.865-1.658 0-3.175-.267-4.585-.811a10.484 10.484 0 01-3.659-2.348c-1.033-1.025-1.84-2.263-2.41-3.715-.582-1.451-.872-3.095-.872-4.92l-.011.011zm5.263 0c0 .982.16 1.89.495 2.732.333.843.774 1.58 1.334 2.199.56.619 1.216 1.1 1.98 1.451a5.774 5.774 0 002.443.523c1.033 0 1.937-.181 2.712-.533a5.66 5.66 0 001.948-1.463 6.306 6.306 0 001.195-2.198c.269-.843.398-1.75.398-2.7 0-1.046-.161-1.985-.484-2.84-.323-.842-.764-1.579-1.335-2.187A5.79 5.79 0 0071.665 6.1a6.09 6.09 0 00-2.444-.491c-.904 0-1.743.16-2.507.49a5.76 5.76 0 00-1.98 1.399c-.56.608-.99 1.334-1.302 2.188-.313.843-.463 1.793-.463 2.839l.01-.011z" fill="#27A536"/><path d="M98.011 23.925L87.723 10.242v13.683h-4.65V1.117h3.96l10.29 13.747V1.117h4.648v22.808h-3.96z" fill="#004C23"/><path d="M104.456 1.105h4.951v22.808h-4.951V1.105zm33.061 0h4.423l8.997 22.808h-5.263l-1.797-4.792h-8.599l-1.797 4.792h-4.951l8.997-22.808h-.01zm-.377 13.128h4.875l-2.421-6.446-2.454 6.446zm-8.307-13.128l-6.35 16.106-6.349-16.106h-5.306l9.008 22.808h5.295l8.997-22.808h-5.295zM104.456 26.59c.312-.02.71-.042 1.205-.064.495-.02 1.044-.042 1.647-.064a96.94 96.94 0 011.862-.053c.635 0 1.259-.01 1.862-.01 1.302 0 2.41.149 3.325.437.915.288 1.668.694 2.26 1.206.592.512 1.023 1.11 1.281 1.804a6.07 6.07 0 01.398 2.22c0 1.195-.215 2.198-.635 3.01-.42.81-1.033 1.504-1.84 2.07v.064c.387.15.775.373 1.141.672.376.288.699.651.99 1.078.29.427.516.929.699 1.495.172.576.259 1.238.259 1.974 0 1.195-.205 2.23-.625 3.116a6.018 6.018 0 01-1.732 2.199 7.33 7.33 0 01-2.616 1.302c-1 .288-2.087.427-3.271.427-.517 0-1.076 0-1.668-.021-.603 0-1.184-.022-1.755-.032a63.98 63.98 0 01-1.592-.054 13.476 13.476 0 01-1.206-.096V26.59h.011zm6.5 4.697c-.312 0-.57.01-.785.032-.215.02-.474.053-.754.096v4.14h1.647c.635 0 1.184-.16 1.625-.49.441-.331.667-.897.667-1.73 0-.693-.247-1.205-.742-1.547a2.904 2.904 0 00-1.647-.501h-.011zm-1.549 8.826v4.27c.161.042.366.084.602.127.237.043.592.064 1.066.064.968 0 1.689-.213 2.163-.63.473-.426.71-1.013.71-1.771 0-.715-.237-1.238-.71-1.57-.474-.33-1.119-.49-1.916-.49h-1.915zm39.367-36.617c0-1.387.98-2.508 2.196-2.508 1.216 0 2.195 1.12 2.195 2.508s-.979 2.508-2.195 2.508c-1.216 0-2.196-1.12-2.196-2.508zm.539 0c0 1.057.742 1.89 1.657 1.89.925 0 1.657-.833 1.657-1.89 0-1.056-.732-1.889-1.657-1.889-.915 0-1.657.833-1.657 1.89zm2.593-.533c0 .341-.161.63-.441.747l.581.96s-.151.096-.344.096c-.172 0-.269-.053-.269-.053l-.571-.928h-.161v.928s-.129.053-.258.053c-.162 0-.27-.053-.27-.053v-2.55h.937c.484 0 .807.33.807.81l-.011-.01zm-.85.31c.194 0 .301-.118.301-.31 0-.203-.107-.31-.301-.31h-.355v.62h.355z" fill="#27A536"/></svg>
